src/assets/icons/favicon.svg

<svg width="48" height="48" viewBox="0 0 48 48" fill="none" xmlns="http://www.w3.org/2000/svg">
<path d="M13.3174 10.6366C18.2211 4.78366 25.9816 3.95561 29.7929 4.40779C18.1621 1.82317 11.4083 8.86933 9.48518 12.7155C4.50057 22.1309 8.79287 30.177 11.5621 33.0232C8.4465 27.3911 8.33839 22.3619 9.13001 18.8316C9.80519 15.8205 11.3356 13.002 13.3174 10.6366Z" fill="#42CC81"/>
<path d="M41.1846 11.173C40.5439 7.73635 38.5974 4.66238 35.5622 2.33081C47.5386 7.15382 46.7929 22.7154 44.5622 27.4847C40.1314 38.377 30.5622 41.2539 26.3314 41.3308C20.6083 41.3308 17.0237 39.6385 15.9468 38.7923C18.716 39.5308 22.1775 39.4077 23.5622 39.2539C28.7314 38.3308 30.6391 33.177 30.9468 30.7154C32.2391 24.8077 28.1006 16.7154 25.8699 13.4077L33.4852 18.4847C33.6762 18.6302 33.8639 18.7644 34.0482 18.8878C38.1363 21.6257 42.0864 16.0098 41.1846 11.173Z" fill="#3B89FF"/>
<ellipse cx="35.3213" cy="13.0187" rx="3.23077" ry="3.92308" transform="rotate(-25.5082 35.3213 13.0187)" fill="#3B89FF"/>
<path d="M21.2546 20.5617V24.0232H24.7161V26.3309H21.2546V29.7924H18.9469V26.3309H15.4854V24.0232H18.9469V20.5617H21.2546Z" fill="#42CC81"/>
<path fill-rule="evenodd" clip-rule="evenodd" d="M24 48C37.2548 48 48 37.2548 48 24C48 23.6842 47.9939 23.3699 47.9818 23.0571C47.508 34.8735 37.7788 44.3077 25.8461 44.3077C13.6108 44.3077 3.69221 34.3891 3.69221 22.1538C3.69221 10.2216 13.1257 0.492627 24.9415 0.0181294C24.6292 0.00608008 24.3153 0 24 0C10.7452 0 0 10.7452 0 24C0 37.2548 10.7452 48 24 48Z" fill="#3B89FF"/>
</svg>

<svg xmlns="http://www.w3.org/2000/svg" fill="none" viewBox="0 0 48 48"><path fill="#42CC81" d="M13.317 10.637c4.904-5.853 12.665-6.681 16.476-6.23-11.63-2.584-18.385 4.462-20.308 8.309-4.984 9.415-.692 17.461 2.077 20.307-3.115-5.632-3.224-10.661-2.432-14.191.675-3.012 2.206-5.83 4.187-8.195Z"/><path fill="#3B89FF" d="M41.185 11.173c-.641-3.437-2.588-6.51-5.623-8.842 11.977 4.823 11.23 20.384 9 25.154-4.43 10.892-14 13.769-18.23 13.846-5.724 0-9.308-1.693-10.385-2.539 2.769.739 6.23.616 7.615.462 5.17-.923 7.077-6.077 7.385-8.539 1.292-5.907-2.846-14-5.077-17.307l7.615 5.077c.191.145.379.28.563.403 4.088 2.738 8.038-2.878 7.137-7.715Z"/><ellipse cx="35.321" cy="13.019" fill="#3B89FF" rx="3.231" ry="3.923" transform="rotate(-25.508 35.321 13.019)"/><path fill="#42CC81" d="M21.255 20.562v3.461h3.461v2.308h-3.461v3.461h-2.308v-3.461h-3.462v-2.308h3.462v-3.461h2.308Z"/><path fill="#3B89FF" fill-rule="evenodd" d="M24 48c13.255 0 24-10.745 24-24 0-.316-.006-.63-.018-.943-.474 11.817-10.203 21.25-22.136 21.25-12.235 0-22.154-9.918-22.154-22.153 0-11.932 9.434-21.661 21.25-22.136A24.42 24.42 0 0 0 24 0C10.745 0 0 10.745 0 24s10.745 24 24 24Z" clip-rule="evenodd"/></svg>
